X: 16274
T: Grey Daylight, The
R: reel
M: 4/4
K: Dmajor
|:AF|D2 FA DAFA|A,2 CE A,ECE|
DAFA DA F/G/A|1 Bdce dB:|2 B/c/d ce d2||
|:g/f/e|d2 fd gefd|B2 ed cA A/B/c|
[1 d/d/d fd g2 fd|B/c/d ce d2:|
[2 d2 e/f/g abag|fd e/d/c d2||

